svg/Pictogram/pictogram-din-p002-open_flame.svg

<?xml version="1.0" encoding="UTF-8" standalone="no"?>
<!-- Created with Inkscape (http://www.inkscape.org/) --><svg height="574.01575" id="svg2" inkscape:version="0.44" sodipodi:docbase="/export/henning/reference/Sicherheitskennzeichnung" sodipodi:docname="DIN_4844-2_Feuer_etc_verboten_D-P002.svg" sodipodi:version="0.32" version="1.0" width="574.01575" xmlns="http://www.w3.org/2000/svg" xmlns:cc="http://web.resource.org/cc/" xmlns:dc="http://purl.org/dc/elements/1.1/" xmlns:inkscape="http://www.inkscape.org/namespaces/inkscape" xmlns:rdf="http://www.w3.org/1999/02/22-rdf-syntax-ns#" xmlns:sodipodi="http://sodipodi.sourceforge.net/DTD/sodipodi-0.dtd" xmlns:svg="http://www.w3.org/2000/svg">
  <metadata>
    <rdf:RDF xmlns:cc="http://web.resource.org/cc/" xmlns:dc="http://purl.org/dc/elements/1.1/" xmlns:rdf="http://www.w3.org/1999/02/22-rdf-syntax-ns#">
      <cc:Work rdf:about="">
        <dc:title></dc:title>
        <dc:description></dc:description>
        <dc:subject>
          <rdf:Bag>
            <rdf:li>unsorted</rdf:li>
          </rdf:Bag>
        </dc:subject>
        <dc:publisher>
          <cc:Agent rdf:about="http://www.openclipart.org/">
            <dc:title>Open Clip Art Library, Source: Wikimedia Commons, Source: Wikimedia Commons, Source: Wikimedia Commons</dc:title>
          </cc:Agent>
        </dc:publisher>
        <dc:creator>
          <cc:Agent>
            <dc:title></dc:title>
          </cc:Agent>
        </dc:creator>
        <dc:rights>
          <cc:Agent>
            <dc:title></dc:title>
          </cc:Agent>
        </dc:rights>
        <dc:date></dc:date>
        <dc:format>image/svg+xml</dc:format>
        <dc:type rdf:resource="http://purl.org/dc/dcmitype/StillImage"/>
        <cc:license rdf:resource="http://en.wikipedia.org/wiki/Public_domain"/>
        <dc:language>en</dc:language>
      </cc:Work>
    </rdf:RDF>
  </metadata>
  <defs id="defs4"/>
  <sodipodi:namedview bordercolor="#666666" borderopacity="1.0" gridtolerance="10000" guidetolerance="10" height="157.40063mm" id="base" inkscape:current-layer="layer1" inkscape:cx="278.17188" inkscape:cy="278.85933" inkscape:document-units="mm" inkscape:pageopacity="0.0" inkscape:pageshadow="2" inkscape:window-height="966" inkscape:window-width="1272" inkscape:window-x="0" inkscape:window-y="0" inkscape:zoom="0.68851908" objecttolerance="10" pagecolor="#ffffff" units="mm" width="157.01257mm"/>
  <g id="layer1" inkscape:groupmode="layer" inkscape:label="Layer 1" transform="translate(-107.7263,-241.8202)">
    <g id="g2760">
      <g id="g1945" style="fill:black;stroke:black" transform="matrix(0.976488,0,0,0.976488,626.9468,21.72266)">
        <path d="M -386,130.71875 C -386,130.71875 -412.56767,133.00457 -433.6875,151.6875 C -436.77518,154.41891 -463.53104,183.58712 -467.09375,190 C -471.24391,198.46268 -472.46876,217.625 -472.46875,217.625 C -479.47542,211.33087 -483.59374,197.59374 -483.59375,197.59375 C -483.59375,197.59375 -490.19981,207.48694 -493.40625,216.75 C -496.01217,224.2782 -502.23171,246.93628 -494.75,267.125 C -490.54849,281.3146 -472.90626,311.68751 -472.90625,311.6875 C -481.21925,312.28129 -499.65624,301.4375 -499.65625,301.4375 C -499.65625,301.4375 -497.40008,319.00599 -496.09375,323.28125 C -493.85413,330.61092 -482.32517,342.15608 -479.59375,345.125 C -472.14378,353.2228 -448.84376,361.59375 -448.84375,361.59375 C -448.84375,361.59375 -452.84332,361.70624 -459.96875,362.0625 C -459.96875,362.0625 -449.40871,376.7746 -439.90625,377.84375 C -430.30857,378.48871 -411.84406,382.99989 -406.5,384.78125 C -404.39528,385.48282 -392.61222,393.04937 -397.125,403.5 C -397.125,403.5 -385.88136,398.11883 -384.21875,396.8125 C -379.6804,393.24665 -375.27509,381.73142 -373.96875,379 C -371.18108,373.17123 -374.84374,353.59374 -374.84375,353.59375 C -374.84375,353.59375 -376.94353,356.8372 -380.625,362.0625 C -380.625,362.0625 -376.86261,349.36272 -374.84375,345.5625 C -372.10234,340.4022 -359.41266,325.85659 -356.5625,320.15625 C -353.83109,314.69342 -348.99999,284.93751 -349,284.9375 L -354.34375,228.78125 C -358.14398,204.67356 -370.52469,183.31261 -375.75,181.53125 L -375.28125,204.71875 C -375.28125,204.71875 -392.09351,192.05672 -396.25,184.21875 C -396.25,184.21875 -408.28785,164.71315 -402.46875,153.90625 C -402.46875,153.90625 -396.92565,137.84417 -386,130.71875 z M -451,253.09375 C -446.48511,262.36114 -445.29928,265.50014 -442.6875,267.34375 C -438.64787,270.19526 -429.875,272.09375 -429.875,272.09375 C -435.34038,266.86601 -434.625,262.125 -434.625,262.125 C -429.63488,263.31314 -417.56762,269.84034 -410.625,274.46875 C -402.78336,279.69651 -390.40625,286.06834 -390.40625,296.09375 C -390.40625,299.89574 -390.40625,316.53125 -390.40625,316.53125 C -387.0795,313.67974 -383.68305,305.38732 -383.0625,302.75 C -381.16149,294.67074 -383.78346,290.76386 -384,282.5625 C -374.97024,285.65164 -369.31991,297.79633 -368.5625,299.90625 C -365.23575,309.17362 -367.51269,326.40438 -370.6875,329.84375 C -373.53899,332.93287 -383.83151,347.83616 -385.65625,353.59375 C -391.8345,364.5245 -389.22862,375.215 -394.21875,382.34375 C -394.21876,382.34375 -395.5713,372.40216 -408.25,364.53125 C -417.04212,359.06586 -442.24246,350.68143 -449.125,346.71875 C -464.80825,337.68901 -462.65625,317.96875 -462.65625,317.96875 C -451.48787,326.76087 -445.22946,326.60505 -434.625,332.4375 C -430.11013,320.31863 -436.42509,308.23084 -444.34375,301.5625 C -448.85862,297.76051 -455.13013,286.41183 -457.1875,276.125 C -458.37562,270.18436 -454.01614,257.86931 -451,253.09375 z " id="path1931" style="fill:black;fill-rule:evenodd;stroke:black;stroke-width:1px;stroke-linecap:butt;stroke-linejoin:miter;stroke-opacity:1" transform="translate(116.5625,249.9687)"/>
        <path d="M -206.09375,177.21875 L -347.28125,339.46875 C -347.63619,339.75508 -347.98049,340.08637 -348.34375,340.46875 C -354.58885,348.39658 -366.68947,368.61671 -368.78125,379.25 C -368.78125,379.25 -372.37159,398.47755 -382.65625,402.3125 C -388.37725,402.82186 -408.83645,414.30374 -414.9375,421.625 C -417.5427,424.75124 -426.923,441.24583 -418.6875,452 C -407.8799,461.93602 -405.77881,461.12843 -400.375,462 C -383.3971,464.73837 -375.6953,456.27245 -372.90625,452.4375 C -364.20648,440.47532 -367.17725,420.95313 -364.5625,415.375 C -358.94623,406.32213 -359.01024,409.12744 -350.46875,403.375 C -338.61901,396.60372 -326.42333,390.69481 -319.625,384.59375 C -310.705,376.58566 -306.90545,369.82281 -303.40625,365.875 C -303.25626,365.68325 -303.12752,365.47483 -303,365.28125 L -167.34375,205.59375 L -172.96875,177.5 L -173.375,177.59375 L -173.28125,177.375 L -206.09375,177.21875 z M -203.0625,184.125 L -184.15625,184.15625 L -326.375,348.125 C -326.76175,348.44694 -327.14823,348.80976 -327.53125,349.21875 C -333.41913,356.78791 -355.0625,376.40626 -355.0625,376.40625 C -355.0625,376.40625 -353.42653,353.16313 -342.53125,343.8125 C -342.40281,343.67211 -342.29755,343.51564 -342.1875,343.375 L -342.0625,343.21875 C -342.00888,343.146 -341.92386,343.07259 -341.875,343 L -203.0625,184.125 z M -178.375,188.875 L -175,205.59375 L -174.625,205.59375 L -307.3125,359.78125 C -307.66809,360.08898 -308.00356,360.44652 -308.375,360.875 C -311.60502,364.64336 -314.33789,369.13233 -319.21875,374.1875 C -321.11006,376.14636 -335.3871,387.18811 -344.53125,387.3125 C -345.92578,380.33985 -329.35018,361.8563 -322.53125,353.78125 C -322.15543,353.34724 -321.82399,352.9329 -321.53125,352.53125 C -321.51071,352.50307 -321.48889,352.46551 -321.46875,352.4375 L -178.375,188.875 z " id="path1936" style="fill:black;fill-rule:evenodd;stroke:black;stroke-width:1px;stroke-linecap:butt;stroke-linejoin:miter;stroke-opacity:1" transform="translate(116.5625,249.9687)"/>
      </g>
      <path d="M 394.71875,250.46875 C 326.18909,250.46875 263.44353,275.41658 215,316.71875 C 213.72876,317.80259 212.47012,318.89377 211.21875,320 C 210.71618,320.44436 210.21807,320.89579 209.71875,321.34375 C 208.64773,322.30439 207.58722,323.27305 206.53125,324.25 C 206.24966,324.51059 205.96801,324.7695 205.6875,325.03125 C 204.43822,326.19659 203.19643,327.37453 201.96875,328.5625 C 200.56109,329.92463 199.16005,331.2961 197.78125,332.6875 C 196.42843,334.05268 195.07456,335.41961 193.75,336.8125 C 192.37577,338.25825 191.03084,339.7438 189.6875,341.21875 C 189.53376,341.3875 189.37208,341.54962 189.21875,341.71875 C 188.05739,343.00017 186.91901,344.29087 185.78125,345.59375 C 184.53889,347.01609 183.33873,348.45858 182.125,349.90625 C 182.0778,349.96255 182.01591,350.00617 181.96875,350.0625 C 141.47309,398.4411 117.0625,460.79516 117.0625,528.84375 C 117.0625,682.49918 241.44349,807.18748 394.71875,807.1875 C 463.3992,807.1875 526.25611,782.11453 574.75,740.65625 L 574.78125,740.6875 C 575.16763,740.3571 575.55296,740.01998 575.9375,739.6875 C 576.09353,739.55259 576.25052,739.4165 576.40625,739.28125 C 577.34651,738.46479 578.28959,737.64133 579.21875,736.8125 C 579.95241,736.15789 580.67961,735.50601 581.40625,734.84375 C 581.61393,734.65454 581.82414,734.47108 582.03125,734.28125 C 582.99901,733.39388 583.95116,732.4946 584.90625,731.59375 C 585.76503,730.78404 586.62031,729.97673 587.46875,729.15625 C 587.5852,729.04364 587.69624,728.92532 587.8125,728.8125 C 588.89951,727.75729 589.96151,726.69774 591.03125,725.625 C 591.34326,725.31227 591.65822,725.00171 591.96875,724.6875 C 593.22085,723.4199 594.45969,722.13514 595.6875,720.84375 C 595.80919,720.71582 595.94105,720.59691 596.0625,720.46875 C 597.46992,718.98283 598.87517,717.48547 600.25,715.96875 C 601.51105,714.57817 602.73561,713.16604 603.96875,711.75 C 604.19669,711.48819 604.42927,711.23142 604.65625,710.96875 C 605.71011,709.74945 606.7483,708.51894 607.78125,707.28125 C 648.11052,658.95828 672.40625,596.73012 672.40625,528.84375 C 672.40625,375.18832 547.99403,250.46874 394.71875,250.46875 z M 394.71875,312.53125 C 513.82431,312.53125 610.5,409.44263 610.5,528.84375 C 610.5,579.68908 592.98469,626.46416 563.65625,663.40625 L 259.15625,360.625 C 296.21143,330.56319 343.36954,312.53125 394.71875,312.53125 z M 226.09375,393.9375 L 530.65625,696.78125 C 493.53958,727.02084 446.23632,745.15625 394.71875,745.15625 C 275.61321,745.15622 178.96875,648.24487 178.96875,528.84375 C 178.96875,477.83839 196.60511,430.93376 226.09375,393.9375 z " id="path1979" style="fill:red;fill-opacity:1;stroke:red;stroke-width:1;stroke-miterlimit:4;stroke-dasharray:none;stroke-dashoffset:0;stroke-opacity:1"/>
      <path d="M -45.02417 125.63196 A 35.946716 32.678833 0 1 1  -116.9176,125.63196 A 35.946716 32.678833 0 1 1  -45.02417 125.63196 z" id="path1873" sodipodi:cx="-80.970886" sodipodi:cy="125.63196" sodipodi:rx="35.946716" sodipodi:ry="32.678833" sodipodi:type="arc" style="fill:none;fill-opacity:1;stroke:black;stroke-width:0.10594698;stroke-linecap:square;stroke-miterlimit:4;stroke-dasharray:none;stroke-dashoffset:0;stroke-opacity:1" transform="matrix(7.971937,0,0,8.769131,1040.229,-572.855)"/>
    </g>
  </g>
</svg>

<svg xmlns="http://www.w3.org/2000/svg" viewBox="0 0 574.02 574.02"><g transform="translate(-107.73-241.82)"><g transform="matrix(.97649 0 0 .97649 740.77 265.81)" stroke="#000" fill-rule="evenodd"><path d="m-386 130.72c0 0-26.568 2.286-47.688 20.969-3.088 2.731-29.844 31.9-33.406 38.31-4.15 8.463-5.375 27.625-5.375 27.625-7.01-6.294-11.125-20.03-11.125-20.03 0 0-6.606 9.893-9.813 19.16-2.606 7.528-8.825 30.19-1.344 50.37 4.202 14.19 21.844 44.563 21.844 44.563-8.313.594-26.75-10.25-26.75-10.25 0 0 2.256 17.568 3.563 21.844 2.24 7.33 13.769 18.875 16.5 21.844 7.45 8.098 30.75 16.469 30.75 16.469 0 0-4 .112-11.125.469 0 0 10.56 14.712 20.06 15.781 9.598.645 28.06 5.156 33.406 6.938 2.105.702 13.888 8.268 9.375 18.719 0 0 11.244-5.381 12.906-6.688 4.538-3.566 8.944-15.08 10.25-17.813 2.788-5.829-.875-25.406-.875-25.406 0 0-2.1 3.243-5.781 8.469 0 0 3.762-12.7 5.781-16.5 2.741-5.16 15.431-19.706 18.281-25.406 2.731-5.463 7.563-35.22 7.563-35.22l-5.344-56.16c-3.8-24.11-16.181-45.47-21.406-47.25l.469 23.19c0 0-16.812-12.662-20.969-20.5 0 0-12.04-19.506-6.219-30.31 0 0 5.543-16.06 16.469-23.19zm-65 122.37c4.515 9.267 5.701 12.406 8.313 14.25 4.04 2.852 12.813 4.75 12.813 4.75-5.465-5.228-4.75-9.969-4.75-9.969 4.99 1.188 17.06 7.715 24 12.344 7.842 5.228 20.22 11.6 20.22 21.625 0 3.802 0 20.438 0 20.438 3.327-2.852 6.723-11.144 7.344-13.781 1.901-8.08-.721-11.986-.938-20.19 9.03 3.089 14.68 15.234 15.438 17.344 3.327 9.267 1.05 26.498-2.125 29.938-2.851 3.089-13.144 17.992-14.969 23.75-6.178 10.931-3.572 21.621-8.563 28.75 0 0-1.353-9.942-14.03-17.813-8.792-5.465-33.992-13.85-40.875-17.813-15.683-9.03-13.531-28.75-13.531-28.75 11.168 8.792 17.427 8.636 28.03 14.469 4.515-12.12-1.8-24.21-9.719-30.875-4.515-3.802-10.786-15.15-12.844-25.438-1.188-5.941 3.171-18.256 6.188-23.03z"/><path d="m-206.09 177.22l-141.19 162.25c-.355.286-.699.618-1.063 1-6.245 7.928-18.346 28.15-20.438 38.781 0 0-3.59 19.228-13.875 23.06-5.721.509-26.18 11.991-32.28 19.313-2.605 3.126-11.986 19.621-3.75 30.375 10.808 9.936 12.909 9.128 18.313 10 16.978 2.738 24.68-5.728 27.469-9.563 8.7-11.962 5.729-31.484 8.344-37.06 5.616-9.05 5.552-6.248 14.09-12 11.85-6.771 24.05-12.68 30.844-18.781 8.92-8.01 12.72-14.771 16.219-18.719.15-.192.279-.4.406-.594l135.66-159.69-5.625-28.09-.406.094.094-.219-32.813-.156zm3.03 6.906l18.906.031-142.22 163.97c-.387.322-.773.685-1.156 1.094-5.888 7.569-27.531 27.19-27.531 27.19 0 0 1.636-23.24 12.531-32.594.128-.14.234-.297.344-.438l.125-.156c.054-.073.139-.146.188-.219l138.81-158.87zm24.688 4.75l3.375 16.719h.375l-132.69 154.19c-.356.308-.691.665-1.063 1.094-3.23 3.768-5.963 8.257-10.844 13.313-1.891 1.959-16.17 13-25.313 13.12-1.395-6.973 15.181-25.456 22-33.531.376-.434.707-.848 1-1.25.021-.028.042-.066.063-.094l143.09-163.56z"/></g><path d="m394.72 250.47c-68.53 0-131.28 24.948-179.72 66.25-1.271 1.084-2.53 2.175-3.781 3.281-.503.444-1 .896-1.5 1.344-1.071.961-2.132 1.929-3.188 2.906-.282.261-.563.519-.844.781-1.249 1.165-2.491 2.343-3.719 3.531-1.408 1.362-2.809 2.734-4.188 4.125-1.353 1.365-2.707 2.732-4.03 4.125-1.374 1.446-2.719 2.931-4.063 4.406-.154.169-.315.331-.469.5-1.161 1.281-2.3 2.572-3.438 3.875-1.242 1.422-2.443 2.865-3.656 4.313-.047.056-.109.1-.156.156-40.496 48.38-64.906 110.73-64.906 178.78 0 153.66 124.38 278.34 277.66 278.34 68.68 0 131.54-25.07 180.03-66.53l.031.031c.386-.33.772-.668 1.156-1 .156-.135.313-.271.469-.406.94-.816 1.883-1.64 2.813-2.469.734-.655 1.461-1.306 2.188-1.969.208-.189.418-.373.625-.563.968-.887 1.92-1.787 2.875-2.688.859-.81 1.714-1.617 2.563-2.438.116-.113.227-.231.344-.344 1.087-1.055 2.149-2.115 3.219-3.188.312-.313.627-.623.938-.938 1.252-1.268 2.491-2.552 3.719-3.844.122-.128.254-.247.375-.375 1.407-1.486 2.813-2.983 4.188-4.5 1.261-1.391 2.486-2.803 3.719-4.219.228-.262.461-.519.688-.781 1.054-1.219 2.092-2.45 3.125-3.688 40.33-48.32 64.62-110.55 64.62-178.44 0-153.66-124.41-278.38-277.69-278.37zm0 62.06c119.11 0 215.78 96.91 215.78 216.31 0 50.845-17.515 97.62-46.844 134.56l-304.5-302.78c37.06-30.06 84.21-48.09 135.56-48.09zm-168.62 81.41l304.56 302.84c-37.12 30.24-84.42 48.37-135.94 48.37-119.11 0-215.75-96.91-215.75-216.31 0-51.01 17.636-97.91 47.12-134.91z" fill="#f00" stroke="#f00"/><path d="M-45.02417 125.63196A35.946716 32.678833 0 1 1 -116.9176 125.63196 35.946716 32.678833 0 1 1 -45.02417 125.63196z" transform="matrix(7.97194 0 0 8.76913 1040.23-572.86)" fill="none" stroke="#000" stroke-linecap="square" stroke-width=".106"/></g></svg>
